X:1
T:THE BROWN HAIRED MAIDEN
M:C|
L:1/8
Q:80
C:Traditional
S:March
K:HP
|: A|
{Gdc}d3/2c/2{g}B{G}A|
{Gdc}d2{e}A3/2{Gdc}d/2|
{g}fd{gf}gf|  !
{g}fe{A}e{gf}g|
f/2a3/2{fg}fa|
A2{Gdc}d3/2e/2|  !
{g}f2{gf}ge|
{Gdc}d2{gdc}d:| [|
{gf}g|  !
f/2a3/2{fg}fa|
A2{Gdc}d3/2e/2|
{g}fd{gf}gf|  !
{g}fe{A}e{gf}g|
f/2a3/2{fg}fa|
A2{Gdc}d3/2e/2|  !
{g}f2{gf}ge|
{Gdc}d2{gdc}d{gf}g|
f/2a3/2{fg}fa|  !
A2{Gdc}d3/2e/2|
{g}fd{gf}gf|
{g}fe{A}e{gf}g|  !
a3/2g/2{fg}fa|
A2{Gdc}d3/2e/2|
{g}f2{gf}ge|  !
{Gdc}d2{gdc}d|]

